X: 20195
T: CHANSON ELEGIAQUE
Q: "Moderate."
%R: air, march, reel
B: W. Hamilton "Universal Tune-Book" Vol. 2 Glasgow 1846 p.19 #5
S: http://s3-eu-west-1.amazonaws.com/itma.dl.printmaterial/book_pdfs/hamiltonvol2web.pdf
Z: 2016 John Chambers <jc:trillian.mit.edu>
M: C
L: 1/8
K: G
% - - - - - - - - - - - - - - - - - - - - - - - - -
d3d |\
(ed)(cB) g3f | (fe)d2 d2d2 |\
(ed)(cB) (ed)(cB) | (B2A2) d2d2 |\
(ed)(cB) g3f | (fe)d2 (de)(fg) |\
(ef/g/) (fe) (dc)(BA) | (A2G2) :|
|: A2A2 |\
B2B2 (dc)(BA) | (Bcd2) A2A2 |\
B2B2 (dc)(Bc) | d4 d3d |\
(ed)(cB) g3f | (fe)d2 (de)(fg) |\
(ef/g/) (fe) (dc)(BA) | (A2G2) :|
% - - - - - - - - - - - - - - - - - - - - - - - - -

%%sep 1 1 500
%%sep 1 1 500

